!!!!SEGMENT: pl-wumfc--n28541--007-007_moniuszko-stanislaw--verbum-nobile-6-piesn-o-verbum-nobile.krn
!!!cenid: 18xx:4213
!!!COM: Moniuszko, Stanisław
!!!COM-rismID: pe30008351
!!!CDT: 1819/05/05-1872/06/04
!!!CNT: Polish
!!!OPR: Verbum nobile
!!!OTL: 6. Pieśń o verbum nobile
!!!OMV: 007
!!!PDT:
!!!AGN: Secular; Opera
!!!YEC: Copyright 2022 Narodowy Instytut Fryderyka Chopina (https://polishscores.org)
!!!YEM: License CC-BY-4.0 (https://creativecommons.org/licenses/by/4.0)
!!!SMS-siglum: PL-Wumfc
!!!SMS-shelfmark: N28541
!!!SMS-variant:
!!!SMS-altvar:
!!!SMS-shelfwork: 007-007 M
!!!NIFC-rismSourceID: 1001152972
!!!NIFC-rismChildID: 1001152972
!!!NIFC-islandoraID: pl-wumfc:3225
!!!URL-pdf-islandora: https://repozytorium.nifc.pl/islandora/object/pl-wumfc:3225/datastream/PDF/view
!!!URL-scan: https://polish.musicsources.pl/pl/lokalizacje/galeria/druki-muzyczne/12012/27 @EN{Scan on Polish Music Sources Website} @PL{Skany w portalu Dziedzictwo Muzyki Polskiej w otwartym dostępie}
!!!IIIF:
!!!ONB-nifc: Skany 0027-0028
!!!AIN: 2 piano 1 vox
!!!key: C
**kern	**kern	**dynam	**kern	**text	**dynam
*part3	*part2	*	*part1	*	*
*staff3	*staff2	*	*staff1	*	*
*I"Piano.	*I"Piano.	*	*I"Serwacy.	*	*
*I'[pf]	*I'[pf]	*	*I'[V]	*	*
*Ipiano	*Ipiano	*	*Ivox	*	*
*ICklav	*ICklav	*	*ICvox	*	*
*clefF4	*clefG2	*	*clefG2	*	*
*k[]	*k[]	*	*k[]	*	*
*C:	*C:	*	*C:	*	*
*M3/4	*M3/4	*	*M3/4	*	*
=1	=1	=1	=1	=1	=1
!	!	!	!LO:TX:a:B:t=Moderato.	!	!
8C\L	8.c/L 8.e	p	4e/	Jesz-	.
8G\J	.	.	.	.	.
!	!LO:TUP:b	!	!	!	!
.	(48d/LL 48f	.	.	.	.
.	48c/ 48e	.	.	.	.
.	48B/JJJ 48d	.	.	.	.
8r	8c/L) 8e	.	8e/	-cześ	.
8G'\L	8e'/ 8g	.	8g/	ma-	.
8C'\	8B'/ 8d	.	8d/	-leń-	.
8G'\J	8d'/J 8f	.	8f/	-ką	.
=2	=2	=2	=2	=2	=2
8C\L	8.c/L 8.e	.	4e/	dzie-	.
8G\J	.	.	.	.	.
!	!LO:TUP:b	!	!	!	!
.	(48d/LL 48f	.	.	.	.
.	48c/ 48e	.	.	.	.
.	48B/JJJ 48d	.	.	.	.
8r	8c/L) 8e	.	8e/	-wecz-	.
8G'\L	8e'/ 8g	.	8g/	-ką	.
8C'\	8A'/ 8c	.	8c/	by-	.
8G'\J	8B'/J 8d	.	8d/	-ła	.
=3	=3	=3	=3	=3	=3
8C\L	8.c/L 8.e	.	4e/	gdy	.
8G\J	.	.	.	.	.
!	!LO:TUP:b	!	!	!	!
.	(48d/LL 48f	.	.	.	.
.	48c/ 48e	.	.	.	.
.	48B/JJJ 48d	.	.	.	.
8r	8c/L) 8e	.	8e/	z przy-	.
8G'\L	8d'/ 8f	<	8f/	-ja-	.
8C'\	8e'/ 8g	.	(8.g/	-cie-	.
8G'\J	8e'/J 8cc	.	.	.	.
.	.	[[	16cc\)	-lem	.
!!LO:LB:g=original	!	!	!	!	!
=4	=4	=4	=4	=4	=4
8GG\L	(>(>4d/ 4f 4cc	.	4cc^\	mło-	.
16G^\L	.	.	.	.	.
!LO:TUP:a	!	!	!	!	!
(48A\L	.	.	.	.	.
48G\	.	.	.	.	.
48F#X\JJJ	.	.	.	.	.
8G\L)	8d/L) 8f 8b	.	8b\	-dych	.
8G'\	8c/ 8f 8a	.	8a/	mych	.
8GG'\	8B/ 8d 8g	.	8g/	lat	.
8G'\J	8B/J) 8d 8f	.	8r	.	.
=5	=5	=5	=5	=5	=5
8C\L	8.c/L 8.e	.	4e/	za-	.
8G\J	.	.	.	.	.
!	!LO:TUP:b	!	!	!	!
.	(48d/LL 48f	.	.	.	.
.	48c/ 48e	.	.	.	.
.	48B/JJJ 48d	.	.	.	.
8r	8c/L) 8e	.	8e/	-szła	.
8G'\L	8e'/ 8g	.	8g/	u-	.
8C'\	8B'/ 8d	.	8d/	-go-	.
8G'\J	8d'/J 8f	.	8f/	-da	.
=6	=6	=6	=6	=6	=6
8C\L	8.c/L 8.e	.	4e/	dla	.
8G\J	.	.	.	.	.
!	!LO:TUP:b	!	!	!	!
.	(48d/LL 48f	.	.	.	.
.	48c/ 48e	.	.	.	.
.	48B/JJJ 48d	.	.	.	.
8r	8c/L) 8e	.	8e/	was	.
8G'\L	8e'/ 8g	.	8g/	nie-	.
8C'\	8A'/ 8c	.	8c/	-mi-	.
8G'\J	8B'/J 8d	.	8d/	-ła	.
!!LO:LB:g=original	!	!	!	!	!
=7	=7	=7	=7	=7	=7
8C'\L	8.c/L 8.e	.	4e/	któ-	.
8G'\J	.	.	.	.	.
!	!LO:TUP:b	!	!	!	!
.	(48d/LL 48f	.	.	.	.
.	48c/ 48e	.	.	.	.
.	48B/JJJ 48d	.	.	.	.
8r	8c/L) 8e	.	8e/	-rą	.
8G'\L	8e'/ 8g	.	8g/	wy-	.
8C'\	8e'/ 8g	.	8g/	-ja-	.
8AA'\J 8A	8e'/J 8cc	.	8cc\	-wić	.
=8	=8	=8	=8	=8	=8
8EE/L	(>4e/ 4g 4b	.	8r	.	.
(16E/L	.	.	8b\	nie	.
!LO:TUP:b	!	!	!	!	!
48F#X/L	.	.	.	.	.
48E/	.	.	.	.	.
48D#X/JJJ	.	.	.	.	.
8E/L)	8.B/L) 8.e 8.g	.	8.g/	bar-	.
8EE/	.	.	.	.	.
.	16G/Jk 16B 16e	.	16e/	-dzom	.
8E/	8G/ 8B 8e	.	4e/	rad.	.
8EE/J	8r	.	.	.	.
=9	=9	=9	=9	=9	=9
2.DD/ 2.D	(8d/L 8f 8a	.	4a/	Syn	.
.	8A/	.	.	.	.
.	8d/) 8f 8a	.	8a/	je-	.
.	8A'/ 8f 8a	.	8a/	-go	.
.	8d'/ 8g	.	8g/	koń-	.
.	8A'/J 8d 8f	.	8f/	-czył	.
!!LO:PB:g=original	!	!	!	!	!
=10	=10	=10	=10	=10	=10
*^	*	*	*	*	*
4E/	(2.GG#X\	8d/L 8e	.	4e/	dzie-	.
.	.	8B/J	.	.	.	.
(8D#X/L	.	8d/L 8b	.	8d#X/	-sią-	.
8E/J	.	8B/J 8e	.	8e/	-te	.
8qG/	.	8qg/	.	8qg/	.	.
8F/L	.	8d/L 8f	.	8f/	la-	.
[8E/J)	.	8B/J 8e	.	8e/	-to,	.
=11	=11	=11	=11	=11	=11	=11
*	*	*^	*	*	*	*
8E/]	2AA\)	8ra	2A\ 2c	<	8r	.	.
(8E/L	.	(8e/L	.	.	8e/	więc	.
8F/	.	8f/	.	.	8f/	my	.
8F#X/J	.	8f#X/J	.	.	8f#X/	Oj-	.
8A/L	4BB\	8a/L	4d\ 4fn	[ >	8a/	-co-	.
8G/J)	.	8g/J)	.	]]	8g/	-wie,	.
=12	=12	=12	=12	=12	=12	=12	=12
2G/	(>4.C\	8ree	2c\ 2e	.	8r	.	.
!	!	!	!	!	!	!	!LO:DY:a
.	.	(<8g/L	.	.	8g/	U-	p
!	!	!	!	!	!LO:TX:a:t=do Stanisława.	!	!
.	.	8cc/)	.	.	8.cc\	-wa-	.
.	8E\	8c'/J 8e	.	.	.	.	.
.	.	.	.	.	16e/	-żaj	.
.	.	8qd/ 8qf	.	.	8qf/	.	.
4rcyy	8G\L)	(8c/L 8e	4rcyy	.	8e/	wa-	.
.	8GG\J	8B/J) 8d	.	.	8d/	-sze!	.
*v	*v	*	*	*	*	*	*
*	*v	*v	*	*	*	*
!!LO:LB:g=original	!	!	!	!	!
=13	=13	=13	=13	=13	=13
(<2AAA-X\ 2AA-X	8F#X</L 8c 8d	.	4d/	da-	.
.	8F#</ 8c 8d	.	.	.	.
.	8F#</ 8c 8d	.	8d/	-liś-	.
.	8F#</ 8c 8d	.	8d/	-my	.
4AAAn\ 4AAn	8F#</ 8c 8d	.	8.dd\	Ver-	.
.	8F#</J 8c 8d	.	.	.	.
.	.	.	16dd\	-bum	.
=14	=14	=14	=14	=14	=14
4BBB-X\) 4BB-X	8G</L 8B-X 8d	.	4.dd^\	mo-	.
.	8G</ 8B- 8d	.	.	.	.
(<4D\	8G</ 8B- 8d	.	.	.	.
.	8G</J 8B- 8d	.	8d/	-bi-	.
4G\)	8B-/L 8d	.	4d/	-le!	.
.	8B-/J 8d	.	.	.	.
=15	=15	=15	=15	=15	=15
2BBB-X\ 2BB-X	8G</L 8e-X	.	4e-X/	da-	.
.	8G</J 8e-	.	.	.	.
.	8G</L 8d 8e-	.	8e-/	-liś-	.
.	8G</J 8d 8e-	.	8e-/	-my	.
4BB-\	8G</L 8d-X 8e-	.	8.ee-X\	Ver-	.
.	8G</J 8d- 8e-	.	.	.	.
.	.	.	16ee-\	-bum	.
=16	=16	=16	=16	=16	=16
(<4CC-X\ 4C-X	8A-X</L 8c-X 8e-X	.	4..ee-X\	no-	.
.	8A-</ 8c- 8e-	.	.	.	.
4E-X\	8A-</ 8c- 8e-	.	.	.	.
.	8A-</J 8c- 8e-	.	.	.	.
.	.	.	16e-X/	-bi-	.
4A-y\)	8c-/L 8e-	.	4e-/	-le!	.
.	8c-/J 8e-	.	.	.	.
!!LO:LB:g=original	!	!	!	!	!
=17	=17	=17	=17	=17	=17
!	!	!	!	!	!LO:HP:a
2.BBn\	2.F#X</ 2.An< 2.d#X	.	8r	.	<
.	.	.	8bn\	da-	.
.	.	.	8a#X/	-liś-	.
!	!	!	!	!	!LO:HP:a
.	.	.	8b\	-my	[ >
.	.	.	8cc\	na	.
.	.	.	8b\	to	]]
=18	=18	=18	=18	=18	=18
!	!	!	!	!	!LO:HP:a
2.BB\	2.Fn</ 2.A< 2.dn	.	8r	.	<
.	.	.	8b\	da-	.
.	.	.	8a#X/	-liś-	.
!	!	!	!	!	!LO:HP:a
.	.	.	8b\	-my	[ >
.	.	.	8cc\	na-	.
.	.	.	8b\	-to	]]
=19	=19	=19	=19	=19	=19
[<2.BBB\ [<2.BB	[>2.F</ N(>2.A-X< 2.d	sf	4dd^\	że	.
!	!	!	!LO:TX:a:i:t=ad libit.	!	!
.	.	.	8cc#X\	się	.
.	.	.	8ccn\	po-	.
.	.	.	8b\	-łą-	.
.	.	.	8b-X\	-czą	.
=20	=20	=20	=20	=20	=20
*	*^	*	*	*	*
2.BBB\] 2.BB]	(>2.F</] 2.d	(8An</LN)	.	8a/	te	.
.	.	8A-X</J	.	8a-X/	dzie-	.
.	.	2G</)	.	8g/	-cia-	.
.	.	.	.	8f#X/	-ki	.
.	.	.	.	8fn/	na-	.
.	.	.	.	8d/	-sze	.
*	*v	*v	*	*	*	*
!!LO:LB:g=original	!	!	!	!	!
=21	=21	=21	=21	=21	=21
!	!	!	!LO:TX:a:B:t=a tempo	!	!
8CC'/L	8E<:/ 8G<: 8c: 8e:	p	8.c/L	O-	.
8GG'/J	16r	.	.	.	.
!	!LO:TUP:b	!	!	!	!
.	(48d/LLL 48f	.	16e/Jk	.	.
.	48c/ 48e	.	.	.	.
.	48B/JJJ 48d	.	.	.	.
8r	8c/L) 8e	.	8g/	-ba-	.
8GG'/L	8e'/ 8g	.	8cc\	-śmy	.
8CC'/	8B'/ 8d	.	8b\	przy-	.
8GG'/J	8d'/J 8f	.	8dd\	-tém	.
=22	=22	=22	=22	=22	=22
8CC'/L	8.c/L 8.e	.	4cc\	po-	.
8GG'/J	.	.	.	.	.
!	!LO:TUP:b	!	!	!	!
.	(48d/LL 48f	.	.	.	.
.	48c/ 48e	.	.	.	.
.	48B/JJJ 48d	.	.	.	.
8r	8c/L) 8e	.	8e/	-sta-	.
8GG'/L	8e'/ 8g	.	8g/	-no-	.
8CC'/	8A'/ 8c	.	8f/	-wi-	.
8GG'/J	8B'/J 8d	.	8d/	-li	.
=23	=23	=23	=23	=23	=23
8CC'/L	8.c/L 8.e	.	4e/	tę	.
8GG'/J	.	.	.	.	.
!	!LO:TUP:b	!	!	!	!
.	(48d/LL 48f	.	.	.	.
.	48c/ 48e	.	.	.	.
.	48B/JJJ 48d	.	.	.	.
8r	8c/L) 8e	<	8e/	kol-	.
8GG'/L	8d'/ 8f	.	8f/	-li-	.
8CC'/	8e'/ 8g	.	8.g/	-ga-	.
8GG'/J	8e'/J 8cc	.	.	.	.
.	.	[[	16cc\	-cyę	.
!!LO:PB:g=original	!	!	!	!	!
=24	=24	=24	=24	=24	=24
8GGG'/L	(>4d/ 4f 4cc	sf	4cc\	dla	.
16GG'/L	.	.	.	.	.
!LO:TUP:b	!	!	!	!	!
(<48A/L	.	.	.	.	.
48G/	.	.	.	.	.
48F#X/JJJ	.	.	.	.	.
8G\L)	8d/L) 8f 8b	>	8b\	nas	.
8G'\	8c'/ 8f 8a	.	8a/	ra-	.
8GG'\	8B'/ 8d 8g	.	8.g/	-do-	.
8GG'\J	8B'/J 8d 8f	.	.	.	.
.	.	]]	16f/	-sną	.
=25	=25	=25	=25	=25	=25
8CC^/L	4c/ 4e	.	4e/	mieć	.
16GG'/L	.	.	.	.	.
!LO:TUP:b	!	!	!	!	!
(48AA/L	.	.	.	.	.
48GG/	.	.	.	.	.
48FF#X/JJJ	.	.	.	.	.
8GG/L)	8c'/L 8e	.	8e/	w ta-	.
8GG'/	8e'/ 8g	.	8g/	-jem-	.
8CC'/	8A'/ 8c	.	8c/	-ni-	.
8GG'/J	8B'/J 8d	.	8d/	-cy	.
=26	=26	=26	=26	=26	=26
8CC^/L	4c/ 4e	.	4e/	do	.
16C/L	.	.	.	.	.
*Xtuplet	*	*	*	*	*
(48D/L	.	.	.	.	.
48C/	.	.	.	.	.
48BB/JJJ	.	.	.	.	.
.	.	.	32qqf/LLL	.	.
.	.	.	32qqe/	.	.
.	.	.	32qqd/JJJ	.	.
8C/L)	8c'/L 8e	.	8e/	bło-	.
8C'/	8e'/ 8g	.	8g/	-giej	.
8FF'/	8A'/ 8c	.	8c/	chwi-	.
8C'/J 8F	8A-X'/J 8c 8d	.	8d/	-li	.
!!LO:LB:g=original	!	!	!	!	!
=27	=27	=27	=27	=27	=27
4GGG/ 4GG	(8.c^/L 8.e	.	8.e/L	aż	.
.	16g/K	.	16g/Jk	.	.
4r	8cc/J)	.	8cc\	pań-	.
.	8e'/L	.	8e/	-stwo	.
4r	8g'/	.	8g/	mło-	.
.	8c'/J	.	8c/	-dzi	.
=28	=28	=28	=28	=28	=28
*^	*	*	*	*	*
8.G>\L	(>8.GG\L	(>2c/ 2e	.	2e/	da	.
16G#X>\Jk	16GG#X\K	.	.	.	.	.
8A>\L	8AA\J)	.	.	.	.	.
8EE'/ 8E	8rEEyy	.	.	.	.	.
8FF'/ 8F	4rEEyy	8A/L) 8c 8d	.	8.d/	Bóg	.
(16GGn'/L 16Gn	.	8B/J 8d	.	.	.	.
16F/JJ	.	.	.	16g/	do-	.
=29	=29	=29	=29	=29	=29	=29
8E/)	8C\	8c/	.	8c/	-ros-	.
16rC	8rEEyy	16r	.	8c/	-ną.	.
!	!	!LO:TX:b:t=cre_scen_do:dur=12s11e:ext=ud:problem:text with extention lines 	!	!	!	!
16EE/ 16E	.	16g/ 16cc	<	.	.	.
8.EE/L 8.E	4rEEyy	8.g/L 8.cc	.	4r	.	.
16EE/K 16E	.	16g/Jk 16b-X 16dd-X	.	.	.	.
8.EE/ 8.E	4rEEyy	8.g/L 8.b- 8.dd-	.	4r	.	.
16FF/Jk 16F	.	16a-X/Jk 16dd-	.	.	.	.
*v	*v	*	*	*	*	*
!!LO:LB:g=original	!	!	!	!	!
=30	=30	=30	=30	=30	=30
8.FF/L 8.F	8.a-X/L 8.dd-X	.	2.r	.	.
16FFF/Jk 16FF	16A-X/Jk 16d-X	.	.	.	.
8.FFF/L 8.FF	8.A-/L 8.d-	.	.	.	.
16FF/Jk 16F	16a-/Jk 16dd-	.	.	.	.
8.FF/L 8.F	8.a-/L 8.dd-	.	.	.	.
16FF#X/Jk 16F#X	16f#X/Jk 16an 16cc#X	.	.	.	.
=31	=31	=31	=31	=31	=31
8.FF#X/L 8.F#X	8.f#X/L 8.a 8.cc#X	.	2.r	.	.
16FF#/Jk 16F#	16f#/Jk 16a 16ddn	.	.	.	.
8.FF#/L 8.F#	8.f#/L 8.a 8.dd	.	.	.	.
16FF#/Jk 16F#	16a/Jk 16ccn 16dd#X	.	.	.	.
8.FF#/L 8.F#	8.a/L 8.cc 8.dd#	.	.	.	.
16GG/Jk 16G	16g/Jk 16cc 16ee	.	.	.	.
=32	=32	=32	=32	=32	=32
8.GG/L 8.G	8.g/L 8.cc 8.ee	.	4r	.	.
16GGG/Jk 16GG	16G/Jk 16c 16e	.	.	.	.
8.GGG/L 8.GG	8.G/L 8.c 8.e	.	4r	.	.
16BB-X/Jk 16C 16B-X	16g/Jk 16cc 16ee	.	.	.	.
8.BB-/L 8.C 8.B-	8.g/L 8.cc 8.ee	.	8.cc\	Ver-	.
16AA-X/Jk 16C 16A-X	16f/Jk 16cc 16ff	[	16cc\	-bum	.
=33	=33	=33	=33	=33	=33
!	!LO:TX:b:i:t=colla parte	!	!	!	!
2AA-X;<\ 2C 2A-X	2f;\ 2cc 2ff	fff	8.cc\	no-	.
.	.	.	16c/	-bi-	.
.	.	.	8c/	-le	.
.	.	.	8cc\	to	.
4FF\	4F</ 4c 4f	pp	8b-X\	swię-	.
.	.	.	8a-X/	-ta	.
!!LO:LB:g=original	!	!	!	!	!
=34	=34	=34	=34	=34	=34
2GG\	2.G</ 2.c 2.e	.	4g/	rzecz.	.
!	!LO:TX:b:i:t=lento	!	!	!	!
.	.	.	4r	.	.
8.GG\L	.	pp	8.g/	Ver-	.
16GG\Jk	.	.	16g/	-bum	.
=35	=35	=35	=35	=35	=35
*ped	*	*	*	*	*
*tremolo	*	*	*	*	*
32GGG/LLL	4.F<^>:/ 4.B: 4.d: 4.g:	.	8.g/	mo-	.
32GG/	.	.	.	.	.
32GGG/	.	.	.	.	.
32GG/	.	.	.	.	.
32GGG/	.	.	.	.	.
32GG/	.	.	.	.	.
32GGG/	.	.	16G/ 16d	-bi-	.
32GG/	.	.	.	.	.
32GGG/	.	.	8G/ 8d	-le	.
32GG/	.	.	.	.	.
32GGG/	.	.	.	.	.
32GG/	.	.	.	.	.
32GGG/	8A/L 8f	.	8f/	to	.
32GG/	.	.	.	.	.
32GGG/	.	.	.	.	.
32GG/	.	.	.	.	.
*Xped	*	*	*	*	*
32GGG/	8.G;/ 8.e	.	8.e;/	swię-	.
32GG/	.	.	.	.	.
32GGG/	.	.	.	.	.
32GG/	.	.	.	.	.
32GGG/	.	.	.	.	.
32GG/	.	.	.	.	.
32GGG/	16F/Jk 16d	.	16d/	-ta	.
32GG/JJJ	.	.	.	.	.
=36	=36	=36	=36	=36	=36
*ped	*	*	*	*	*
32CC\LLL	2E</ 2G< 2c	.	4c/	rzecz!	.
32GG\	.	.	.	.	.
32CC\	.	.	.	.	.
32GG\	.	.	.	.	.
32CC\	.	.	.	.	.
32GG\	.	.	.	.	.
32CC\	.	.	.	.	.
32GG\	.	.	.	.	.
32CC\	.	.	4r	.	.
32GG\	.	.	.	.	.
32CC\	.	.	.	.	.
32GG\	.	.	.	.	.
32CC\	.	.	.	.	.
32GG\	.	.	.	.	.
32CC\	.	.	.	.	.
32GG\	.	.	.	.	.
32CC\	8.E</L 8.G< 8.c	.	4r	.	.
32GG\	.	.	.	.	.
32CC\	.	.	.	.	.
32GG\	.	.	.	.	.
32CC\	.	.	.	.	.
32GG\	.	.	.	.	.
32CC\	16E</Jk 16G< 16c	.	.	.	.
32GG\JJJ	.	.	.	.	.
=37	=37	=37	=37	=37	=37
*^	*	*	*	*	*
2E/ 2G	32CC\LLL	(>8c/L	.	2.r	.	.
.	32GG\	.	.	.	.	.
.	32CC\	.	.	.	.	.
.	32GG\	.	.	.	.	.
.	32CC\	8e/	.	.	.	.
.	32GG\	.	.	.	.	.
.	32CC\	.	.	.	.	.
.	32GG\	.	.	.	.	.
.	32CC\	8c/	.	.	.	.
.	32GG\	.	.	.	.	.
.	32CC\	.	.	.	.	.
.	32GG\	.	.	.	.	.
.	32CC\	8G/)	.	.	.	.
.	32GG\	.	.	.	.	.
.	32CC\	.	.	.	.	.
.	32GG\	.	.	.	.	.
*Xped	*	*	*	*	*	*
8C\L	32CC\	8E</	.	.	.	.
.	32GG\	.	.	.	.	.
.	32CC\	.	.	.	.	.
.	32GG\	.	.	.	.	.
8E\J	32CC\	8G</J	.	.	.	.
.	32GG\	.	.	.	.	.
.	32CC\	.	.	.	.	.
.	32GG\JJJ	.	.	.	.	.
*v	*v	*	*	*	*	*
=38	=38	=38	=38	=38	=38
2.CC\	2.C<;/	.	2.r;	.	.
==	==	==	==	==	==
*-	*-	*-	*-	*-	*-
!!!system-decoration: s1{(s2,s3)}
!!!RDF**kern: N = linked
!!!RDF**kern: > = above
!!!RDF**kern: < = below
!!!ENC: Solarz Mateusz
!!!END: 2022-09-27
!!!ENC: Natalia Wrzos
!!!END: 2022-11-01
